X:4
T: St. Joseph's
I: RJ R-94 D reel
M: C|
R: reel
K: D
|:\
"D"defd "A7"cdec | "D"defd A2ef | "G(Em)"g2gf edcB |\
[1,3 "A7"Aa2a abag :|[2,4 "A7"Afec "D"d2dA :| 
|:\
"D"Af2g fedc | "G"BG2B g4 | "A7"e2ef edcB |\
[1 ea2a abag :|[2 Afec "D"d2dA |] 
